src/assets/icons/weeks,simple,51.svg

<svg width="48" height="48" viewBox="0 0 48 48" fill="none" xmlns="http://www.w3.org/2000/svg">
<rect opacity="0.2" x="5" y="5" width="38" height="38" rx="4" fill="black"/>
<path d="M5 13C5 9.22876 5 7.34315 6.17157 6.17157C7.34315 5 9.22876 5 13 5H35C38.7712 5 40.6569 5 41.8284 6.17157C43 7.34315 43 9.22876 43 13V15H5V13Z" fill="black"/>
<path d="M18.1843 38.2386C22.0707 38.2386 24.7127 35.7074 24.7042 32.179C24.7127 28.8381 22.3775 26.4347 19.2326 26.4347C17.6985 26.4347 16.3775 27.0739 15.7638 27.9347H15.6616L16.1133 23.5625H23.7411V20.5455H13.0707L12.244 29.75L15.5252 30.3381C16.0621 29.6136 17.1019 29.1619 18.1332 29.1619C19.8888 29.1705 21.1502 30.4403 21.1502 32.2727C21.1502 34.0881 19.9144 35.3409 18.1843 35.3409C16.7184 35.3409 15.5337 34.4205 15.4485 33.0653H11.869C11.9371 36.0824 14.5707 38.2386 18.1843 38.2386ZM34.8718 20.5455H31.4031L27.082 23.2812V26.554L31.0792 24.0483H31.1815V38H34.8718V20.5455Z" fill="black"/>
</svg>

<svg xmlns="http://www.w3.org/2000/svg" width="48" height="48" fill="none" viewBox="0 0 48 48">
  <rect width="38" height="38" x="5" y="5" fill="#000" opacity=".2" rx="4"/>
  <path fill="#000" d="M5 13c0-3.771 0-5.657 1.172-6.828C7.343 5 9.229 5 13 5h22c3.771 0 5.657 0 6.828 1.172C43 7.343 43 9.229 43 13v2H5v-2zM18.184 38.239c3.887 0 6.529-2.532 6.52-6.06.009-3.34-2.326-5.744-5.471-5.744-1.535 0-2.855.639-3.47 1.5h-.101l.451-4.372h7.628v-3.017h-10.67l-.827 9.204 3.281.588c.537-.724 1.577-1.176 2.608-1.176 1.756.009 3.017 1.278 3.017 3.11 0 1.816-1.236 3.069-2.966 3.069-1.466 0-2.65-.92-2.736-2.276H11.87c.068 3.017 2.702 5.174 6.315 5.174zm16.688-17.693h-3.469l-4.321 2.735v3.273l3.997-2.506h.102V38h3.69V20.546z"/>
</svg>
